gy/si-glyph-pill.svg

<svg viewBox="0 0 17 16" xmlns="http://www.w3.org/2000/svg" class="si-glyph si-glyph-pill" height="1em" width="1em">
  <path d="m15.897 1.731-.656-.657C13.887-.281 11.745-.341 10.46.944L1.957 9.446c-1.284 1.285-1.224 3.425.133 4.782l.654.654c1.357 1.357 3.498 1.418 4.783.134l8.503-8.505c1.284-1.282 1.224-3.423-.133-4.78Zm-4.811 8.433L6.841 5.917l4.208-4.208c.945-.944 2.532-.898 3.535.107l.604.601c.49.493.771 1.135.787 1.809a2.331 2.331 0 0 1-.68 1.729l-4.209 4.209Z" fill="#434343" class="si-glyph-fill" fill-rule="evenodd"/>
</svg>

<svg viewBox="0 0 17 16" version="1.1" xmlns="http://www.w3.org/2000/svg" class="si-glyph si-glyph-pill" height="1em" width="1em">
  <g stroke="none" stroke-width="1" fill="none" fill-rule="evenodd">
    <path d="M15.897,1.731 L15.241,1.074 C13.887,-0.281 11.745,-0.341 10.46,0.944 L1.957,9.446 C0.673,10.731 0.733,12.871 2.09,14.228 L2.744,14.882 C4.101,16.239 6.242,16.3 7.527,15.016 L16.03,6.511 C17.314,5.229 17.254,3.088 15.897,1.731 L15.897,1.731 Z M11.086,10.164 L6.841,5.917 L11.049,1.709 C11.994,0.765 13.581,0.811 14.584,1.816 L15.188,2.417 C15.678,2.91 15.959,3.552 15.975,4.226 C15.991,4.888 15.75,5.502 15.295,5.955 L11.086,10.164 L11.086,10.164 Z" fill="#434343" class="si-glyph-fill"/>
  </g>
</svg>
